build/img/icons/gift.svg

<svg width="64" height="76" viewBox="0 0 64 76" fill="none" xmlns="http://www.w3.org/2000/svg">
<path fill-rule="evenodd" clip-rule="evenodd" d="M61.097 22.501H36.312C50.125 15.602 51.229 11.25 50.72 8.816C49.558 4.853 45.028 1.793 40.718 3.409C35.149 5.498 33.581 13.797 32.074 19.796C30.15 13.726 28.29 5.982 23.938 2.059C22.677 0.920999 20.843 -0.205001 18.175 0.0309991C14.149 0.386999 8.373 5.413 10.717 11.012C12.968 16.39 20.404 19.789 25.295 22.501H2.879C1.29355 22.5026 0.00715075 23.7846 0 25.37V36.692C0.00715075 38.2774 1.29355 39.5594 2.879 39.561H3.153V76H60.994V39.561H61.097C62.6828 39.5599 63.9698 38.2778 63.977 36.692V25.37C63.9698 23.7842 62.6828 22.5021 61.097 22.501ZM42.413 5.944C44.516 5.634 47.395 7.243 47.668 9.153C48.061 11.909 44.268 14.408 42.582 15.574C40.059 17.318 37.654 18.217 35.295 19.629C36.179 15.939 37.844 6.618 42.413 5.944ZM19.531 15.912C17.306 14.427 12.987 11.481 13.091 8.141C13.203 4.546 18.834 1.571 21.905 4.255C25.761 7.626 27.618 15.36 29.024 20.812C25.775 19.273 22.696 18.024 19.531 15.912ZM25.503 73.026H6.136V39.561H25.504V73.026H25.503ZM25.503 36.524H3.046V25.538H25.503V36.524ZM35.66 36.524V73.027H28.486V25.538H35.66V36.524ZM58.011 73.026H38.644V39.561H58.011V73.026ZM60.931 36.524H38.644V25.538H60.931V36.524Z" fill="#81B3D2"/>
</svg>

<svg width="64" height="76" fill="none" xmlns="http://www.w3.org/2000/svg"><path fill-rule="evenodd" clip-rule="evenodd" d="M61.097 22.501H36.312C50.125 15.602 51.229 11.25 50.72 8.816c-1.162-3.963-5.692-7.023-10.002-5.407-5.569 2.089-7.137 10.388-8.644 16.387-1.924-6.07-3.784-13.814-8.136-17.737C22.677.921 20.843-.205 18.175.031c-4.026.356-9.802 5.382-7.458 10.981 2.251 5.378 9.687 8.777 14.578 11.489H2.879A2.882 2.882 0 000 25.37v11.322a2.882 2.882 0 002.879 2.869h.274V76h57.841V39.561h.103a2.882 2.882 0 002.88-2.869V25.37a2.882 2.882 0 00-2.88-2.869zM42.413 5.944c2.103-.31 4.982 1.299 5.255 3.209.393 2.756-3.4 5.255-5.086 6.421-2.523 1.744-4.928 2.643-7.287 4.055.884-3.69 2.549-13.011 7.118-13.685zm-22.882 9.968c-2.225-1.485-6.544-4.431-6.44-7.771.112-3.595 5.743-6.57 8.814-3.886 3.856 3.371 5.713 11.105 7.119 16.557-3.249-1.539-6.328-2.788-9.493-4.9zm5.972 57.114H6.136V39.561h19.368v33.465h-.001zm0-36.502H3.046V25.538h22.457v10.986zm10.157 0v36.503h-7.174V25.538h7.174v10.986zm22.351 36.502H38.644V39.561h19.367v33.465zm2.92-36.502H38.644V25.538h22.287v10.986z" fill="#81B3D2"/></svg>.524H3.046V25.538H25.503V36.524ZM35.66 36.524V73.027H28.486V25.538H35.66V36.524ZM58.011 73.026H38.644V39.561H58.011V73.026ZM60.931 36.524H38.644V25.538H60.931V36.524Z" fill="#81B3D2"/>
</svg>
